; generated by PrusaSlicer 2.9.4 on 2026-02-25 at 17:34:17 UTC


; printer_model = MK3.9
; filament_type = PLA
; filament_abrasive = 0
; nozzle_diameter = 0.4
; nozzle_high_flow = 0
; bed_temperature = 60
; brim_width = 0
; fill_density = 20%
; layer_height = 0.3
; temperature = 220
; ironing = 0
; support_material = 1
; extruder_colour = ""
; max_layer_z = 30.05
; objects_info = {"objects":[]}
; filament used [mm] = 1781.28
; filament used [g] = 5.31
; filament cost = 0.13
; filament used [cm3] = 4.28
; total filament used for wipe tower [g] = 0.00
; estimated printing time (normal mode) = 29m 26s
; estimated printing time (silent mode) = 29m 30s

;
;

;
;

;
;

;
;

M73 P0 R29
M73 Q0 S29
M201 X4000 Y4000 Z200 E2500
M203 X300 Y300 Z40 E100
M204 P4000 R2500 T4000
M205 X8.00 Y8.00 Z2.00 E10.00
M205 S0 T0
;TYPE:Custom
M17
M862.1 P0.4 A0 F0
M862.3 P "MK3.9"
M862.5 P2
M862.6 P"Input shaper"
M115 U6.4.0+11974
M555 X73.3751 Y69.3751 W53.2498 H57.2498
G90
M83
M140 S60
M104 T0 S170
M109 T0 R170
M84 E
G28
G1 X42 Y-4 Z5 F4800
M302 S155
G1 E-2 F2400
M84 E
G29 P9 X10 Y-4 W32 H4
M106 S100
G0 Z40 F10000
M190 S60
M107
; MBL
M84 E
G29 P1
G29 P1 X0 Y0 W130 H20 C
G29 P3.2
G29 P3.13
G29 A
; prepare for purge
M104 S230
G0 X0 Y-4 Z15 F4800
M109 S230
G92 E0
M569 S0 E
; Extrude purge line
G92 E0
G1 E2 F2400
G0 E7 X15 Z0.2 F500
G0 X25 E4 F500
G0 X35 E4 F650
G0 X45 E4 F800
G0 X48 Z0.05 F8000
G0 X51 Z0.2 F8000
G92 E0
M221 S100
G21
G90
M83
M572 S0.036
M142 S36
M107
;LAYER_CHANGE
;Z:0.35
;HEIGHT:0.35
G1 E-.7 F2100
G1 Z.95 F7800
G1 X75.225 Y75.871
G1 Z.35
G1 E.7 F1500
;TYPE:Skirt/Brim
;WIDTH:0.7
G1 F1800
G1 X76.966 Y74.465 E.20349
G1 X80 Y73.688 E.28478
G1 X120 Y73.688 E3.63718
G1 X122.203 Y74.084 E.20353
G1 X124.129 Y75.225 E.20356
G1 X125.535 Y76.966 E.20349
G1 X126.312 Y80 E.28478
G1 X126.312 Y120 E3.63718
G1 X125.916 Y122.203 E.20353
G1 X124.775 Y124.129 E.20356
G1 X123.034 Y125.535 E.20349
G1 X120 Y126.312 E.28478
G1 X80 Y126.312 E3.63718
G1 X77.797 Y125.916 E.20353
G1 X75.871 Y124.775 E.20356
G1 X74.465 Y123.034 E.20349
G1 X73.688 Y120 E.28478
G1 X73.688 Y80 E3.63718
G1 X74.084 Y77.797 E.20353
G1 X75.194 Y75.923 E.19805
G1 E-.7 F2100
G1 X94.105 Y94.515 Z.813 F7800
G1 X96.906 Y97.268 Z.873
G1 X99.706 Y100.021 Z.916
G1 X105.307 Y105.528 Z.95
G1 X118.4 Y118.4
G1 Z.35
G1 E.7 F1500
;TYPE:Perimeter
;WIDTH:0.7
G1 F1800
G1 X81.6 Y118.4 E3.34621
G1 X81.6 Y81.6 E3.34621
G1 X118.4 Y81.6 E3.34621
M73 P1 R29
M73 Q1 S29
G1 X118.4 Y118.34 E3.34075
G1 X119.025 Y119.025 F7800
G1 F1800
G1 X80.975 Y119.025 E3.45987
G1 X80.975 Y80.975 E3.45987
G1 X119.025 Y80.975 E3.45987
G1 X119.025 Y118.965 E3.45441
G1 X119.65 Y119.65 F7800
;TYPE:External perimeter
G1 F1800
G1 X80.35 Y119.65 E3.57353
G1 X80.35 Y80.35 E3.57353
M73 P1 R28
G1 X119.65 Y80.35 E3.57353
G1 X119.65 Y119.59 E3.56807
G1 X119.254 Y119.649 F7800
M73 Q1 S28
G1 E-.7 F2100
G1 X118.5 Y93.141 Z.813 F7800
G1 X118.388 Y89.215 Z.873
G1 X118.276 Y85.289 Z.916
G1 X118.213 Y83.06 Z.932
G1 Z.35
G1 E.7 F1500
;TYPE:Solid infill
;WIDTH:0.704401
G1 F1800
G1 X117.221 Y82.068 E.12846
G1 X116.332 Y82.068 E.08141
G1 X117.932 Y83.669 E.20726
G1 X117.932 Y84.558 E.08141
G1 X115.442 Y82.068 E.32245
G1 X114.552 Y82.068 E.0815
G1 X117.932 Y85.448 E.43771
G1 X117.932 Y86.338 E.0815
G1 X113.662 Y82.068 E.55296
G1 X112.772 Y82.068 E.0815
G1 X117.932 Y87.228 E.66822
G1 X117.932 Y88.118 E.0815
G1 X111.882 Y82.068 E.78347
G1 X110.992 Y82.068 E.0815
G1 X117.932 Y89.008 E.89873
G1 X117.932 Y89.898 E.0815
G1 X110.102 Y82.068 E1.01398
G1 X109.212 Y82.068 E.0815
G1 X117.932 Y90.788 E1.12924
G1 X117.932 Y91.678 E.0815
G1 X108.322 Y82.068 E1.24449
G1 X107.432 Y82.068 E.0815
G1 X117.932 Y92.568 E1.35974
G1 X117.932 Y93.458 E.0815
M73 P2 R28
M73 Q2 S28
G1 X106.542 Y82.068 E1.475
G1 X105.652 Y82.068 E.0815
G1 X117.932 Y94.348 E1.59025
G1 X117.932 Y95.238 E.0815
G1 X104.762 Y82.068 E1.70551
G1 X103.872 Y82.068 E.0815
G1 X117.932 Y96.128 E1.82076
G1 X117.932 Y97.018 E.0815
G1 X102.982 Y82.068 E1.93602
G1 X102.092 Y82.068 E.0815
G1 X117.932 Y97.908 E2.05127
G1 X117.932 Y98.798 E.0815
G1 X101.202 Y82.068 E2.16653
G1 X100.312 Y82.068 E.0815
G1 X117.932 Y99.688 E2.28178
G1 X117.932 Y100.578 E.0815
G1 X99.422 Y82.068 E2.39703
G1 X98.532 Y82.068 E.0815
G1 X117.932 Y101.468 E2.51229
G1 X117.932 Y102.357 E.08141
G1 X97.643 Y82.068 E2.62741
G1 X96.753 Y82.068 E.0815
G1 X117.932 Y103.247 E2.74267
G1 X117.932 Y104.137 E.0815
G1 X95.863 Y82.068 E2.85792
G1 X94.973 Y82.068 E.0815
G1 X117.932 Y105.027 E2.97318
G1 X117.932 Y105.917 E.0815
G1 X94.083 Y82.068 E3.08843
G1 X93.193 Y82.068 E.0815
G1 X117.932 Y106.807 E3.20369
G1 X117.932 Y107.697 E.0815
G1 X92.303 Y82.068 E3.31894
G1 X91.413 Y82.068 E.0815
G1 X117.932 Y108.587 E3.4342
G1 X117.932 Y109.477 E.0815
G1 X90.523 Y82.068 E3.54945
G1 X89.633 Y82.068 E.0815
M73 P3 R28
M73 Q3 S28
G1 X117.932 Y110.367 E3.6647
G1 X117.932 Y111.257 E.0815
G1 X88.743 Y82.068 E3.77996
G1 X87.853 Y82.068 E.0815
G1 X117.932 Y112.147 E3.89521
G1 X117.932 Y113.037 E.0815
G1 X86.963 Y82.068 E4.01047
G1 X86.073 Y82.068 E.0815
G1 X117.932 Y113.927 E4.12572
G1 X117.932 Y114.817 E.0815
G1 X85.183 Y82.068 E4.24098
G1 X84.293 Y82.068 E.0815
G1 X117.932 Y115.707 E4.35623
G1 X117.932 Y116.597 E.0815
G1 X83.403 Y82.068 E4.47149
G1 X82.513 Y82.068 E.0815
G1 X117.932 Y117.487 E4.58674
G1 X117.932 Y117.932 E.04075
G1 X117.487 Y117.932 E.04075
G1 X82.068 Y82.513 E4.58674
G1 X82.068 Y83.403 E.0815
G1 X116.597 Y117.932 E4.47149
G1 X115.707 Y117.932 E.0815
M73 P4 R28
M73 Q4 S28
G1 X82.068 Y84.293 E4.35623
G1 X82.068 Y85.183 E.0815
G1 X114.817 Y117.932 E4.24098
G1 X113.927 Y117.932 E.0815
G1 X82.068 Y86.073 E4.12572
G1 X82.068 Y86.963 E.0815
G1 X113.037 Y117.932 E4.01047
G1 X112.147 Y117.932 E.0815
G1 X82.068 Y87.853 E3.89521
G1 X82.068 Y88.743 E.0815
G1 X111.257 Y117.932 E3.77996
G1 X110.367 Y117.932 E.0815
G1 X82.068 Y89.633 E3.6647
G1 X82.068 Y90.523 E.0815
G1 X109.477 Y117.932 E3.54945
G1 X108.587 Y117.932 E.0815
G1 X82.068 Y91.413 E3.4342
G1 X82.068 Y92.303 E.0815
G1 X107.697 Y117.932 E3.31894
G1 X106.807 Y117.932 E.0815
G1 X82.068 Y93.193 E3.20369
G1 X82.068 Y94.083 E.0815
G1 X105.917 Y117.932 E3.08843
G1 X105.027 Y117.932 E.0815
M73 P4 R27
G1 X82.068 Y94.973 E2.97318
G1 X82.068 Y95.863 E.0815
M73 P5 R27
M73 Q5 S28
G1 X104.137 Y117.932 E2.85792
G1 X103.247 Y117.932 E.0815
G1 X82.068 Y96.753 E2.74267
G1 X82.068 Y97.643 E.0815
M73 Q5 S27
G1 X102.357 Y117.932 E2.62741
G1 X101.467 Y117.932 E.0815
G1 X82.068 Y98.533 E2.51216
G1 X82.068 Y99.423 E.0815
G1 X100.577 Y117.932 E2.3969
G1 X99.688 Y117.932 E.08141
G1 X82.068 Y100.312 E2.28178
G1 X82.068 Y101.202 E.0815
G1 X98.798 Y117.932 E2.16653
G1 X97.908 Y117.932 E.0815
G1 X82.068 Y102.092 E2.05127
G1 X82.068 Y102.982 E.0815
G1 X97.018 Y117.932 E1.93602
G1 X96.128 Y117.932 E.0815
G1 X82.068 Y103.872 E1.82076
G1 X82.068 Y104.762 E.0815
G1 X95.238 Y117.932 E1.70551
G1 X94.348 Y117.932 E.0815
G1 X82.068 Y105.652 E1.59025
G1 X82.068 Y106.542 E.0815
G1 X93.458 Y117.932 E1.475
G1 X92.568 Y117.932 E.0815
G1 X82.068 Y107.432 E1.35974
G1 X82.068 Y108.322 E.0815
G1 X91.678 Y117.932 E1.24449
G1 X90.788 Y117.932 E.0815
G1 X82.068 Y109.212 E1.12924
G1 X82.068 Y110.102 E.0815
G1 X89.898 Y117.932 E1.01398
G1 X89.008 Y117.932 E.0815
G1 X82.068 Y110.992 E.89873
G1 X82.068 Y111.882 E.0815
G1 X88.118 Y117.932 E.78347
G1 X87.228 Y117.932 E.0815
G1 X82.068 Y112.772 E.66822
G1 X82.068 Y113.662 E.0815
G1 X86.338 Y117.932 E.55296
G1 X85.448 Y117.932 E.0815
G1 X82.068 Y114.552 E.43771
G1 X82.068 Y115.442 E.0815
G1 X84.558 Y117.932 E.32245
G1 X83.668 Y117.932 E.0815
G1 X82.068 Y116.332 E.2072
G1 X82.068 Y117.222 E.0815
G1 X83.06 Y118.213 E.1284
M106 S127.5
;LAYER_CHANGE
;Z:0.65
;HEIGHT:0.3
;BEFORE_LAYER_CHANGE
G92 E0.0
;0.65
M201 X3999.19 Y3999.19
G1 E-.7 F2100
G1 X83.06 Y118.213 Z.35 F7800
G1 X109.572 Y118.796 Z.813
G1 X113.499 Y118.883 Z.873
G1 X117.425 Y118.969 Z.916
G1 X119.004 Y119.004 Z.928
;AFTER_LAYER_CHANGE
;0.65
M74 W0.755437
M104 S220
G1 Z.65
G1 E.7 F1500
;TYPE:Perimeter
;WIDTH:0.45
G1 F3600
G1 X80.996 Y119.004 E1.82805
G1 X80.996 Y80.996 E1.82805
G1 X119.004 Y80.996 E1.82805
G1 X119.004 Y118.944 E1.82517
G1 X119.389 Y119.389 F7800
M73 P6 R27
M73 Q6 S27
G1 F3600
G1 X80.611 Y119.389 E1.86509
G1 X80.611 Y80.611 E1.86509
G1 X119.389 Y80.611 E1.86509
G1 X119.389 Y119.329 E1.8622
G1 X119.775 Y119.775 F7800
;TYPE:External perimeter
G1 F1800
G1 X80.225 Y119.775 E1.90222
G1 X80.225 Y80.225 E1.90222
G1 X119.775 Y80.225 E1.90222
G1 X119.775 Y119.715 E1.89933
G1 X119.379 Y119.774 F7800
G1 E-.7 F2100
G1 X100.743 Y100.908 Z1.113 F7800
G1 X97.983 Y98.114 Z1.173
G1 X95.223 Y95.32 Z1.216
G1 X89.703 Y89.732 Z1.25
G1 X81.39 Y81.317
G1 Z.65
G1 E.7 F1500
;TYPE:Solid infill
;WIDTH:0.543559
G1 F1200
G1 X81.348 Y81.274 E.00359
G1 X81.29 Y81.29 E.0036
G1 X81.274 Y81.348 E.0036
G1 X81.317 Y81.39 E.00359
G1 X81.375 Y81.375 E.00358
;WIDTH:0.45
G1 X81.285 Y81.991 E.02994
G1 X81.991 Y81.285 E.04802
G1 X82.536 Y81.285 E.02621
G1 X81.285 Y82.536 E.08509
G1 X81.285 Y83.081 E.02621
G1 X83.081 Y81.285 E.12216
G1 X83.627 Y81.285 E.02626
G1 X81.285 Y83.627 E.1593
G1 X81.285 Y84.172 E.02621
G1 X84.172 Y81.285 E.19637
G1 X84.717 Y81.285 E.02621
G1 X81.285 Y84.717 E.23344
G1 X81.285 Y85.263 E.02626
G1 X85.263 Y81.285 E.27058
G1 X85.808 Y81.285 E.02621
G1 X81.285 Y85.808 E.30765
G1 X81.285 Y86.353 E.02621
G1 X86.353 Y81.285 E.34472
G1 X86.899 Y81.285 E.02626
G1 X81.285 Y86.899 E.38186
G1 X81.285 Y87.444 E.02621
G1 X87.444 Y81.285 E.41893
G1 X87.989 Y81.285 E.02621
G1 X81.285 Y87.989 E.456
G1 X81.285 Y88.535 E.02626
G1 X88.535 Y81.285 E.49314
G1 X89.08 Y81.285 E.02621
G1 X81.285 Y89.08 E.53021
G1 X81.285 Y89.625 E.02621
G1 X89.625 Y81.285 E.56728
G1 X90.171 Y81.285 E.02626
G1 X81.285 Y90.171 E.60441
G1 X81.285 Y90.716 E.02621
G1 X90.716 Y81.285 E.64148
G1 X91.261 Y81.285 E.02621
G1 X81.285 Y91.261 E.67856
G1 X81.285 Y91.807 E.02626
G1 X91.807 Y81.285 E.71569
G1 X92.352 Y81.285 E.02621
G1 X81.285 Y92.352 E.75276
G1 X81.285 Y92.897 E.02621
M73 Q7 S27
G1 X92.897 Y81.285 E.78983
G1 X93.443 Y81.285 E.02626
M73 P7 R27
G1 X81.285 Y93.443 E.82697
G1 X81.285 Y93.988 E.02621
G1 X93.988 Y81.285 E.86404
G1 X94.534 Y81.285 E.02626
G1 X81.285 Y94.534 E.90118
G1 X81.285 Y95.079 E.02621
G1 X95.079 Y81.285 E.93825
G1 X95.624 Y81.285 E.02621
G1 X81.285 Y95.624 E.97532
G1 X81.285 Y96.17 E.02626
G1 X96.17 Y81.285 E1.01246
G1 X96.715 Y81.285 E.02621
G1 X81.285 Y96.715 E1.04953
G1 X81.285 Y97.26 E.02621
G1 X97.26 Y81.285 E1.0866
G1 X97.806 Y81.285 E.02626
G1 X81.285 Y97.806 E1.12374
G1 X81.285 Y98.351 E.02621
G1 X98.351 Y81.285 E1.16081
G1 X98.896 Y81.285 E.02621
G1 X81.285 Y98.896 E1.19788
G1 X81.285 Y99.442 E.02626
G1 X99.442 Y81.285 E1.23502
G1 X99.987 Y81.285 E.02621
G1 X81.285 Y99.987 E1.27209
G1 X81.285 Y100.532 E.02621
G1 X100.532 Y81.285 E1.30916
G1 X101.078 Y81.285 E.02626
G1 X81.285 Y101.078 E1.3463
G1 X81.285 Y101.623 E.02621
M73 P8 R27
M73 Q8 S27
G1 X101.623 Y81.285 E1.38337
G1 X102.168 Y81.285 E.02621
G1 X81.285 Y102.168 E1.42044
G1 X81.285 Y102.714 E.02626
G1 X102.714 Y81.285 E1.45757
G1 X103.259 Y81.285 E.02621
G1 X81.285 Y103.259 E1.49464
G1 X81.285 Y103.804 E.02621
M73 P8 R26
G1 X103.804 Y81.285 E1.53171
G1 X104.35 Y81.285 E.02626
G1 X81.285 Y104.35 E1.56885
G1 X81.285 Y104.895 E.02621
M73 Q8 S26
G1 X104.895 Y81.285 E1.60592
G1 X105.44 Y81.285 E.02621
G1 X81.285 Y105.44 E1.64299
G1 X81.285 Y105.986 E.02626
G1 X105.986 Y81.285 E1.68013
G1 X106.531 Y81.285 E.02621
G1 X81.285 Y106.531 E1.7172
G1 X81.285 Y107.077 E.02626
G1 X107.077 Y81.285 E1.75434
G1 X107.622 Y81.285 E.02621
M73 P9 R26
M73 Q9 S26
G1 X81.285 Y107.622 E1.79141
G1 X81.285 Y108.167 E.02621
G1 X108.167 Y81.285 E1.82848
G1 X108.713 Y81.285 E.02626
G1 X81.285 Y108.713 E1.86562
G1 X81.285 Y109.258 E.02621
G1 X109.258 Y81.285 E1.90269
G1 X109.803 Y81.285 E.02621
G1 X81.285 Y109.803 E1.93976
G1 X81.285 Y110.349 E.02626
G1 X110.349 Y81.285 E1.9769
G1 X110.894 Y81.285 E.02621
G1 X81.285 Y110.894 E2.01397
G1 X81.285 Y111.439 E.02621
G1 X111.439 Y81.285 E2.05104
G1 X111.985 Y81.285 E.02626
G1 X81.285 Y111.985 E2.08818
G1 X81.285 Y112.53 E.02621
M73 P10 R26
M73 Q10 S26
G1 X112.53 Y81.285 E2.12525
G1 X113.075 Y81.285 E.02621
G1 X81.285 Y113.075 E2.16232
G1 X81.285 Y113.621 E.02626
G1 X113.621 Y81.285 E2.19945
G1 X114.166 Y81.285 E.02621
G1 X81.285 Y114.166 E2.23652
G1 X81.285 Y114.711 E.02621
G1 X114.711 Y81.285 E2.2736
G1 X115.257 Y81.285 E.02626
G1 X81.285 Y115.257 E2.31073
G1 X81.285 Y115.802 E.02621
G1 X115.802 Y81.285 E2.3478
G1 X116.347 Y81.285 E.02621
M73 P11 R26
M73 Q11 S26
G1 X81.285 Y116.347 E2.38487
G1 X81.285 Y116.893 E.02626
G1 X116.893 Y81.285 E2.42201
G1 X117.438 Y81.285 E.02621
G1 X81.285 Y117.438 E2.45908
G1 X81.285 Y117.983 E.02621
G1 X117.983 Y81.285 E2.49615
G1 X118.529 Y81.285 E.02626
G1 X81.285 Y118.529 E2.53329
G1 X81.225 Y118.835 E.015
M73 P11 R25
;WIDTH:0.404381
G1 X81.184 Y118.846 E.0018
G1 X81.165 Y118.775 E.00312
G1 X81.236 Y118.794 E.00312
;WIDTH:0.45
G1 X81.645 Y118.715 E.02004
G1 X118.715 Y81.645 E2.52146
G1 X118.715 Y82.19 E.02621
M73 Q11 S25
G1 X82.19 Y118.715 E2.48439
G1 X82.736 Y118.715 E.02626
M73 P12 R25
M73 Q12 S25
G1 X118.715 Y82.736 E2.44725
G1 X118.715 Y83.281 E.02621
G1 X83.281 Y118.715 E2.41018
G1 X83.826 Y118.715 E.02621
G1 X118.715 Y83.826 E2.37311
G1 X118.715 Y84.372 E.02626
G1 X84.372 Y118.715 E2.33597
G1 X84.917 Y118.715 E.02621
G1 X118.715 Y84.917 E2.2989
G1 X118.715 Y85.463 E.02626
G1 X85.463 Y118.715 E2.26176
G1 X86.008 Y118.715 E.02621
G1 X118.715 Y86.008 E2.22469
G1 X118.715 Y86.553 E.02621
M73 P13 R25
M73 Q13 S25
G1 X86.553 Y118.715 E2.18762
G1 X87.099 Y118.715 E.02626
G1 X118.715 Y87.099 E2.15048
G1 X118.715 Y87.644 E.02621
G1 X87.644 Y118.715 E2.11341
G1 X88.189 Y118.715 E.02621
G1 X118.715 Y88.189 E2.07634
G1 X118.715 Y88.735 E.02626
G1 X88.735 Y118.715 E2.0392
G1 X89.28 Y118.715 E.02621
G1 X118.715 Y89.28 E2.00213
G1 X118.715 Y89.825 E.02621
G1 X89.825 Y118.715 E1.96506
G1 X90.371 Y118.715 E.02626
G1 X118.715 Y90.371 E1.92792
G1 X118.715 Y90.916 E.02621
M73 P14 R25
M73 Q14 S25
G1 X90.916 Y118.715 E1.89085
G1 X91.461 Y118.715 E.02621
G1 X118.715 Y91.461 E1.85378
G1 X118.715 Y92.007 E.02626
G1 X92.007 Y118.715 E1.81665
G1 X92.552 Y118.715 E.02621
G1 X118.715 Y92.552 E1.77957
G1 X118.715 Y93.097 E.02621
G1 X93.097 Y118.715 E1.7425
G1 X93.643 Y118.715 E.02626
G1 X118.715 Y93.643 E1.70537
G1 X118.715 Y94.188 E.02621
G1 X94.188 Y118.715 E1.6683
G1 X94.733 Y118.715 E.02621
G1 X118.715 Y94.733 E1.63123
G1 X118.715 Y95.279 E.02626
G1 X95.279 Y118.715 E1.59409
G1 X95.824 Y118.715 E.02621
G1 X118.715 Y95.824 E1.55702
G1 X118.715 Y96.369 E.02621
M73 P15 R25
M73 Q15 S25
G1 X96.369 Y118.715 E1.51995
G1 X96.915 Y118.715 E.02626
M73 P15 R24
G1 X118.715 Y96.915 E1.48281
G1 X118.715 Y97.46 E.02621
G1 X97.46 Y118.715 E1.44574
G1 X98.005 Y118.715 E.02621
M73 Q15 S24
G1 X118.715 Y98.006 E1.40863
G1 X118.715 Y98.551 E.02621
G1 X98.551 Y118.715 E1.37153
G1 X99.096 Y118.715 E.02621
G1 X118.715 Y99.096 E1.33446
G1 X118.715 Y99.642 E.02626
G1 X99.642 Y118.715 E1.29732
G1 X100.187 Y118.715 E.02621
G1 X118.715 Y100.187 E1.26025
G1 X118.715 Y100.732 E.02621
G1 X100.732 Y118.715 E1.22318
G1 X101.278 Y118.715 E.02626
G1 X118.715 Y101.278 E1.18604
G1 X118.715 Y101.823 E.02621
G1 X101.823 Y118.715 E1.14897
G1 X102.368 Y118.715 E.02621
G1 X118.715 Y102.368 E1.1119
G1 X118.715 Y102.914 E.02626
M73 P16 R24
M73 Q16 S24
G1 X102.914 Y118.715 E1.07476
G1 X103.459 Y118.715 E.02621
G1 X118.715 Y103.459 E1.03769
G1 X118.715 Y104.004 E.02621
G1 X104.004 Y118.715 E1.00062
G1 X104.55 Y118.715 E.02626
G1 X118.715 Y104.55 E.96349
G1 X118.715 Y105.095 E.02621
G1 X105.095 Y118.715 E.92642
G1 X105.64 Y118.715 E.02621
G1 X118.715 Y105.64 E.88935
G1 X118.715 Y106.186 E.02626
G1 X106.186 Y118.715 E.85221
G1 X106.731 Y118.715 E.02621
G1 X118.715 Y106.731 E.81514
G1 X118.715 Y107.276 E.02621
G1 X107.276 Y118.715 E.77807
G1 X107.822 Y118.715 E.02626
G1 X118.715 Y107.822 E.74093
G1 X118.715 Y108.367 E.02621
G1 X108.367 Y118.715 E.70386
G1 X108.912 Y118.715 E.02621
G1 X118.715 Y108.912 E.66679
G1 X118.715 Y109.458 E.02626
G1 X109.458 Y118.715 E.62965
G1 X110.003 Y118.715 E.02621
