; generated by PrusaSlicer 2.9.4 on 2026-03-09 at 10:34:58 UTC


;
;
; 

; external perimeters extrusion width = 0.45mm
; perimeters extrusion width = 0.45mm
; infill extrusion width = 0.45mm
; solid infill extrusion width = 0.45mm
; top infill extrusion width = 0.40mm
; support material extrusion width = 0.35mm
; first layer extrusion width = 0.42mm

M73 P0 R44
M73 Q0 S44
M201 X1000 Y1000 Z200 E5000 ; sets maximum accelerations, mm/sec^2
M203 X200 Y200 Z12 E120 ; sets maximum feedrates, mm / sec
M204 S1250 T1250 ; sets acceleration (S) and retract acceleration (R), mm/sec^2
M205 X8.00 Y8.00 Z0.40 E4.50 ; sets the jerk limits, mm/sec
M205 S0 T0 ; sets the minimum extruding and travel feed rate, mm/sec

; printing object Support_LimitSwitch_FilterCard.stl id:0 copy 0
; stop printing object Support_LimitSwitch_FilterCard.stl id:0 copy 0

;TYPE:Custom
M862.3 P "MK3SMMU3" ; printer model check
M862.1 P0.4 ; nozzle diameter check
M115 U3.14.1 ; tell printer latest fw version
G90 ; use absolute coordinates
M83 ; extruder relative mode
M104 S215 ; set extruder temp
M140 S60 ; set bed temp
Tx
M190 S60 ; wait for bed temp
M109 S215 ; wait for extruder temp
G28 W ; home all without mesh bed level
G80 X102.623 Y82.6229 W44.7542 H44.7542 ; mesh bed levelling

;go outside print area
G1 Y-3 F1000
G1 Z0.4 F1000
; select extruder
Tc
; purge line
G1 X55 F2000
G1 Z0.3 F1000
G92 E0
G1 X240 E25 F2200
G1 Y-2 F1000
G1 X55 E25 F1400
G1 Z0.2 F1000
G1 X5 E4 F1000

M221 S95
G92 E0

; Don't change E values below. Excessive value can damage the printer.
M907 E430 ; set extruder motor current
G21 ; set units to millimeters
G90 ; use absolute coordinates
M83 ; use relative distances for extrusion

M900 K0.05 ; Filament gcode LA 1.5
M900 K30 ; Filament gcode LA 1.0




M107
;LAYER_CHANGE
;Z:0.2
;HEIGHT:0.2
G1 E-.8 F2100
G1 Z.6 F720
G1 X103.202 Y83.752 F10800
G1 Z.2 F720
G1 E.8 F2100
M204 S800
;TYPE:Skirt/Brim
;WIDTH:0.42
G1 F1200
G1 X104.235 Y82.949 E.04102
G1 X105 Y82.811 E.02437
G1 X145 Y82.811 E1.25417
G1 X146.248 Y83.202 E.04101
G1 X147.051 Y84.235 E.04102
G1 X147.189 Y85 E.02437
G1 X147.189 Y125 E1.25417
G1 X146.798 Y126.248 E.04101
G1 X145.765 Y127.051 E.04102
G1 X145 Y127.189 E.02437
G1 X105 Y127.189 E1.25417
G1 X103.752 Y126.798 E.04101
G1 X102.949 Y125.765 E.04102
G1 X102.811 Y125 E.02437
G1 X102.811 Y85 E1.25417
G1 X103.184 Y83.809 E.03913
M73 P1 R44
M73 Q1 S44
M204 S1000
;WIPE_START
G1 F8640
G1 X103.202 Y83.752 E-.0138
G1 X104.235 Y82.949 E-.30211
G1 X105 Y82.811 E-.17949
G1 X106.319 Y82.811 E-.3046
;WIPE_END
G1 Z.6 F720
; printing object Support_LimitSwitch_FilterCard.stl id:0 copy 0
G1 X144.213 Y124.213 F10800
G1 Z.2 F720
G1 E.8 F2100
M204 S800
;TYPE:Perimeter
;WIDTH:0.419999
G1 F1200
G1 X105.787 Y124.213 E1.20482
G1 X105.787 Y85.787 E1.20482
G1 X144.213 Y85.787 E1.20482
G1 X144.213 Y124.153 E1.20294
M204 S1000
G1 X144.59 Y124.59 F10800
M204 S800
;TYPE:External perimeter
G1 F1200
G1 X105.41 Y124.59 E1.22846
G1 X105.41 Y85.41 E1.22846
M73 P1 R43
G1 X144.59 Y85.41 E1.22846
G1 X144.59 Y124.53 E1.22658
M204 S1000
;WIPE_START
G1 F8640
G1 X144.59 Y124.59 E-.01385
G1 X141.185 Y124.59 E-.78615
;WIPE_END
G1 Z.6 F720
G1 X144.062 Y86.701 F10800
G1 Z.2 F720
G1 E.8 F2100
M204 S800
;TYPE:Solid infill
;WIDTH:0.420326
G1 F1200
G1 X143.469 Y86.108 E.02632
G1 X142.935 Y86.108 E.01676
G1 X143.892 Y87.065 E.04247
G1 X143.892 Y87.599 E.01676
G1 X142.401 Y86.108 E.06617
G1 X141.868 Y86.108 E.01673
G1 X143.892 Y88.132 E.08983
G1 X143.892 Y88.666 E.01676
G1 X141.334 Y86.108 E.11352
G1 X140.8 Y86.108 E.01676
G1 X143.892 Y89.2 E.13722
G1 X143.892 Y89.734 E.01676
G1 X140.266 Y86.108 E.16092
G1 X139.733 Y86.108 E.01673
G1 X143.892 Y90.267 E.18458
G1 X143.892 Y90.801 E.01676
G1 X139.199 Y86.108 E.20828
G1 X138.665 Y86.108 E.01676
G1 X143.892 Y91.335 E.23197
G1 X143.892 Y91.869 E.01676
G1 X138.131 Y86.108 E.25567
G1 X137.598 Y86.108 E.01673
G1 X143.892 Y92.402 E.27933
G1 X143.892 Y92.936 E.01676
G1 X137.064 Y86.108 E.30303
G1 X136.53 Y86.108 E.01676
G1 X143.892 Y93.47 E.32673
G1 X143.892 Y94.003 E.01673
G1 X135.997 Y86.108 E.35038
G1 X135.463 Y86.108 E.01676
G1 X143.892 Y94.537 E.37408
G1 X143.892 Y95.071 E.01676
G1 X134.929 Y86.108 E.39778
G1 X134.395 Y86.108 E.01676
G1 X143.892 Y95.605 E.42148
G1 X143.892 Y96.138 E.01673
G1 X133.862 Y86.108 E.44513
G1 X133.328 Y86.108 E.01676
G1 X143.892 Y96.672 E.46883
G1 X143.892 Y97.206 E.01676
M73 P2 R43
M73 Q2 S44
G1 X132.794 Y86.108 E.49253
G1 X132.26 Y86.108 E.01676
G1 X143.892 Y97.74 E.51623
G1 X143.892 Y98.273 E.01673
M73 Q2 S43
G1 X131.727 Y86.108 E.53988
G1 X131.193 Y86.108 E.01676
G1 X143.892 Y98.807 E.56358
G1 X143.892 Y99.341 E.01676
G1 X130.659 Y86.108 E.58728
G1 X130.125 Y86.108 E.01676
G1 X143.892 Y99.875 E.61098
G1 X143.892 Y100.408 E.01673
G1 X129.592 Y86.108 E.63463
G1 X129.058 Y86.108 E.01676
G1 X143.892 Y100.942 E.65833
G1 X143.892 Y101.476 E.01676
G1 X128.524 Y86.108 E.68203
G1 X127.991 Y86.108 E.01673
G1 X143.892 Y102.009 E.70569
G1 X143.892 Y102.543 E.01676
G1 X127.457 Y86.108 E.72939
G1 X126.923 Y86.108 E.01676
G1 X143.892 Y103.077 E.75309
G1 X143.892 Y103.611 E.01676
G1 X126.389 Y86.108 E.77678
G1 X125.856 Y86.108 E.01673
G1 X143.892 Y104.144 E.80044
G1 X143.892 Y104.678 E.01676
G1 X125.322 Y86.108 E.82414
G1 X124.788 Y86.108 E.01676
G1 X143.892 Y105.212 E.84784
G1 X143.892 Y105.746 E.01676
G1 X124.254 Y86.108 E.87154
G1 X123.721 Y86.108 E.01673
G1 X143.892 Y106.279 E.89519
G1 X143.892 Y106.813 E.01676
G1 X123.187 Y86.108 E.91889
G1 X122.653 Y86.108 E.01676
G1 X143.892 Y107.347 E.94259
G1 X143.892 Y107.88 E.01673
G1 X122.12 Y86.108 E.96624
G1 X121.586 Y86.108 E.01676
G1 X143.892 Y108.414 E.98994
G1 X143.892 Y108.948 E.01676
M73 P3 R43
G1 X121.052 Y86.108 E1.01364
M73 Q3 S43
G1 X120.518 Y86.108 E.01676
G1 X143.892 Y109.482 E1.03734
G1 X143.892 Y110.015 E.01673
G1 X119.985 Y86.108 E1.06099
G1 X119.451 Y86.108 E.01676
G1 X143.892 Y110.549 E1.08469
G1 X143.892 Y111.083 E.01676
G1 X118.917 Y86.108 E1.10839
G1 X118.383 Y86.108 E.01676
G1 X143.892 Y111.617 E1.13209
G1 X143.892 Y112.15 E.01673
G1 X117.85 Y86.108 E1.15575
G1 X117.316 Y86.108 E.01676
G1 X143.892 Y112.684 E1.17944
G1 X143.892 Y113.218 E.01676
G1 X116.782 Y86.108 E1.20314
G1 X116.248 Y86.108 E.01676
M73 P3 R42
G1 X143.892 Y113.752 E1.22684
G1 X143.892 Y114.285 E.01673
G1 X115.715 Y86.108 E1.2505
G1 X115.181 Y86.108 E.01676
G1 X143.892 Y114.819 E1.2742
G1 X143.892 Y115.353 E.01676
G1 X114.647 Y86.108 E1.29789
G1 X114.114 Y86.108 E.01673
G1 X143.892 Y115.886 E1.32155
G1 X143.892 Y116.42 E.01676
M73 P4 R42
G1 X113.58 Y86.108 E1.34525
G1 X113.046 Y86.108 E.01676
M73 Q4 S43
G1 X143.892 Y116.954 E1.36895
G1 X143.892 Y117.488 E.01676
G1 X112.512 Y86.108 E1.39265
G1 X111.979 Y86.108 E.01673
G1 X143.892 Y118.021 E1.4163
G1 X143.892 Y118.555 E.01676
M73 Q4 S42
G1 X111.445 Y86.108 E1.44
G1 X110.911 Y86.108 E.01676
G1 X143.892 Y119.089 E1.4637
G1 X143.892 Y119.623 E.01676
G1 X110.377 Y86.108 E1.4874
G1 X109.844 Y86.108 E.01673
G1 X143.892 Y120.156 E1.51105
G1 X143.892 Y120.69 E.01676
G1 X109.31 Y86.108 E1.53475
G1 X108.776 Y86.108 E.01676
G1 X143.892 Y121.224 E1.55845
G1 X143.892 Y121.758 E.01676
G1 X108.242 Y86.108 E1.58215
G1 X107.709 Y86.108 E.01673
G1 X143.892 Y122.291 E1.6058
G1 X143.892 Y122.825 E.01676
M73 P5 R42
M73 Q5 S42
G1 X107.175 Y86.108 E1.6295
G1 X106.641 Y86.108 E.01676
G1 X143.892 Y123.359 E1.6532
G1 X143.892 Y123.892 E.01673
G1 X106.108 Y86.108 E1.67686
G1 X106.108 Y86.641 E.01673
G1 X143.359 Y123.892 E1.6532
G1 X142.825 Y123.892 E.01676
G1 X106.108 Y87.175 E1.6295
G1 X106.108 Y87.709 E.01676
G1 X142.291 Y123.892 E1.6058
G1 X141.757 Y123.892 E.01676
G1 X106.108 Y88.243 E1.5821
G1 X106.108 Y88.776 E.01673
G1 X141.224 Y123.892 E1.55845
G1 X140.69 Y123.892 E.01676
M73 P5 R41
G1 X106.108 Y89.31 E1.53475
G1 X106.108 Y89.844 E.01676
G1 X140.156 Y123.892 E1.51105
G1 X139.622 Y123.892 E.01676
M73 P6 R41
M73 Q6 S42
G1 X106.108 Y90.378 E1.48735
G1 X106.108 Y90.911 E.01673
G1 X139.089 Y123.892 E1.4637
G1 X138.555 Y123.892 E.01676
G1 X106.108 Y91.445 E1.44
G1 X106.108 Y91.979 E.01676
G1 X138.021 Y123.892 E1.4163
G1 X137.488 Y123.892 E.01673
G1 X106.108 Y92.512 E1.39265
G1 X106.108 Y93.046 E.01676
G1 X136.954 Y123.892 E1.36895
G1 X136.42 Y123.892 E.01676
M73 Q6 S41
G1 X106.108 Y93.58 E1.34525
G1 X106.108 Y94.114 E.01676
G1 X135.886 Y123.892 E1.32155
G1 X135.353 Y123.892 E.01673
G1 X106.108 Y94.647 E1.29789
G1 X106.108 Y95.181 E.01676
G1 X134.819 Y123.892 E1.2742
G1 X134.285 Y123.892 E.01676
G1 X106.108 Y95.715 E1.2505
G1 X106.108 Y96.249 E.01676
G1 X133.751 Y123.892 E1.2268
G1 X133.218 Y123.892 E.01673
M73 P7 R41
G1 X106.108 Y96.782 E1.20314
G1 X106.108 Y97.316 E.01676
M73 Q7 S41
G1 X132.684 Y123.892 E1.17944
G1 X132.15 Y123.892 E.01676
G1 X106.108 Y97.85 E1.15575
G1 X106.108 Y98.384 E.01676
G1 X131.616 Y123.892 E1.13205
G1 X131.083 Y123.892 E.01673
G1 X106.108 Y98.917 E1.10839
G1 X106.108 Y99.451 E.01676
G1 X130.549 Y123.892 E1.08469
G1 X130.015 Y123.892 E.01676
G1 X106.108 Y99.985 E1.06099
G1 X106.108 Y100.518 E.01673
G1 X129.482 Y123.892 E1.03734
G1 X128.948 Y123.892 E.01676
G1 X106.108 Y101.052 E1.01364
G1 X106.108 Y101.586 E.01676
G1 X128.414 Y123.892 E.98994
G1 X127.88 Y123.892 E.01676
G1 X106.108 Y102.12 E.96624
G1 X106.108 Y102.653 E.01673
G1 X127.347 Y123.892 E.94259
G1 X126.813 Y123.892 E.01676
G1 X106.108 Y103.187 E.91889
G1 X106.108 Y103.721 E.01676
G1 X126.279 Y123.892 E.89519
G1 X125.745 Y123.892 E.01676
G1 X106.108 Y104.255 E.87149
G1 X106.108 Y104.788 E.01673
G1 X125.212 Y123.892 E.84784
G1 X124.678 Y123.892 E.01676
M73 P8 R41
G1 X106.108 Y105.322 E.82414
G1 X106.108 Y105.856 E.01676
M73 Q8 S41
G1 X124.144 Y123.892 E.80044
G1 X123.61 Y123.892 E.01676
M73 P8 R40
G1 X106.108 Y106.39 E.77674
G1 X106.108 Y106.923 E.01673
G1 X123.077 Y123.892 E.75309
G1 X122.543 Y123.892 E.01676
G1 X106.108 Y107.457 E.72939
G1 X106.108 Y107.991 E.01676
G1 X122.009 Y123.892 E.70569
G1 X121.476 Y123.892 E.01673
G1 X106.108 Y108.524 E.68203
G1 X106.108 Y109.058 E.01676
G1 X120.942 Y123.892 E.65833
G1 X120.408 Y123.892 E.01676
G1 X106.108 Y109.592 E.63463
G1 X106.108 Y110.126 E.01676
G1 X119.874 Y123.892 E.61094
G1 X119.341 Y123.892 E.01673
G1 X106.108 Y110.659 E.58728
G1 X106.108 Y111.193 E.01676
G1 X118.807 Y123.892 E.56358
G1 X118.273 Y123.892 E.01676
G1 X106.108 Y111.727 E.53988
G1 X106.108 Y112.261 E.01676
G1 X117.739 Y123.892 E.51618
G1 X117.206 Y123.892 E.01673
G1 X106.108 Y112.794 E.49253
G1 X106.108 Y113.328 E.01676
G1 X116.672 Y123.892 E.46883
G1 X116.138 Y123.892 E.01676
G1 X106.108 Y113.862 E.44513
G1 X106.108 Y114.395 E.01673
G1 X115.605 Y123.892 E.42148
G1 X115.071 Y123.892 E.01676
G1 X106.108 Y114.929 E.39778
G1 X106.108 Y115.463 E.01676
G1 X114.537 Y123.892 E.37408
G1 X114.003 Y123.892 E.01676
M73 Q8 S40
G1 X106.108 Y115.997 E.35038
G1 X106.108 Y116.53 E.01673
G1 X113.47 Y123.892 E.32673
G1 X112.936 Y123.892 E.01676
G1 X106.108 Y117.064 E.30303
G1 X106.108 Y117.598 E.01676
G1 X112.402 Y123.892 E.27933
G1 X111.868 Y123.892 E.01676
G1 X106.108 Y118.132 E.25563
G1 X106.108 Y118.665 E.01673
G1 X111.335 Y123.892 E.23197
G1 X110.801 Y123.892 E.01676
G1 X106.108 Y119.199 E.20828
G1 X106.108 Y119.733 E.01676
G1 X110.267 Y123.892 E.18458
G1 X109.733 Y123.892 E.01676
G1 X106.108 Y120.267 E.16088
G1 X106.108 Y120.8 E.01673
G1 X109.2 Y123.892 E.13722
G1 X108.666 Y123.892 E.01676
G1 X106.108 Y121.334 E.11352
G1 X106.108 Y121.868 E.01676
G1 X108.132 Y123.892 E.08983
G1 X107.599 Y123.892 E.01673
G1 X106.108 Y122.401 E.06617
G1 X106.108 Y122.935 E.01676
G1 X107.065 Y123.892 E.04247
G1 X106.531 Y123.892 E.01676
G1 X105.938 Y123.299 E.02632
M204 S1000
M106 S84.15
;LAYER_CHANGE
;Z:0.35
;HEIGHT:0.15
;BEFORE_LAYER_CHANGE
G92 E0.0
;0.35


;WIPE_START
G1 F8640
G1 X106.531 Y123.892 E-.19364
G1 X107.065 Y123.892 E-.1233
G1 X106.108 Y122.935 E-.3125
G1 X106.108 Y122.401 E-.1233
G1 X106.253 Y122.546 E-.04726
;WIPE_END
G1 Z.35 F720
;AFTER_LAYER_CHANGE
;0.35
M104 S210 ; set temperature
; stop printing object Support_LimitSwitch_FilterCard.stl id:0 copy 0
G1 Z.75
G1 X102.811 Y123.299 F10800
G1 Z.35 F720
G1 E.8 F2100
;TYPE:Skirt/Brim
;WIDTH:0.42
G1 F3000
G1 X102.811 Y85 E.92626
G1 X103.202 Y83.752 E.03163
M73 P9 R40
G1 X104.235 Y82.949 E.03164
G1 X105 Y82.811 E.0188
G1 X145 Y82.811 E.9674
G1 X146.248 Y83.202 E.03163
G1 X147.051 Y84.235 E.03164
G1 X147.189 Y85 E.0188
M73 Q9 S40
G1 X147.189 Y125 E.9674
G1 X146.798 Y126.248 E.03163
G1 X145.765 Y127.051 E.03164
G1 X145 Y127.189 E.0188
G1 X105 Y127.189 E.9674
G1 X103.752 Y126.798 E.03163
G1 X102.949 Y125.765 E.03164
G1 X102.811 Y125 E.0188
G1 X102.811 Y123.359 E.03969
;WIPE_START
G1 F8640
G1 X102.811 Y123.299 E-.01385
G1 X102.811 Y119.894 E-.78615
;WIPE_END
G1 Z.75 F720
; printing object Support_LimitSwitch_FilterCard.stl id:0 copy 0
G1 X144.357 Y124.357 F10800
G1 Z.35 F720
G1 E.8 F2100
M204 S800
;TYPE:Perimeter
;WIDTH:0.449999
G1 F2675.236
G1 X105.643 Y124.357 E1.00872
G1 X105.643 Y85.643 E1.00872
G1 X144.357 Y85.643 E1.00872
G1 X144.357 Y124.297 E1.00716
M204 S1000
G1 X144.775 Y124.775 F10800
M204 S800
;TYPE:External perimeter
G1 F1500
G1 X144.1 Y124.775 E.01759
G1 X105.9 Y124.775 E.99533
G1 X105.225 Y124.775 E.01759
G1 X105.225 Y124.1 E.01759
G1 X105.225 Y85.9 E.99533
G1 X105.225 Y85.225 E.01759
G1 X105.9 Y85.225 E.01759
G1 X144.1 Y85.225 E.99533
G1 X144.775 Y85.225 E.01759
G1 X144.775 Y85.9 E.01759
G1 X144.775 Y124.1 E.99533
G1 X144.775 Y124.715 E.01602
M204 S1000
;WIPE_START
G1 F8640
G1 X144.775 Y124.775 E-.01385
G1 X144.1 Y124.775 E-.15586
G1 X141.37 Y124.775 E-.63029
;WIPE_END
G1 Z.75 F720
G1 X106.111 Y86.032 F10800
G1 Z.35 F720
G1 E.8 F2100
;TYPE:Solid infill
;WIDTH:0.55137
G1 F4800
G1 X106.065 Y85.986 E.00211
G1 X106.003 Y86.003 E.00208
G1 X105.986 Y86.065 E.00208
G1 X106.032 Y86.111 E.00211
G1 X106.095 Y86.095 E.0021
;WIDTH:0.449999
G1 X105.998 Y86.762 E.01756
G1 X106.762 Y85.998 E.02815
G1 X107.353 Y85.998 E.0154
G1 X105.998 Y87.353 E.04993
G1 X105.998 Y87.944 E.0154
G1 X107.944 Y85.998 E.07171
G1 X108.534 Y85.998 E.01537
G1 X105.998 Y88.534 E.09345
G1 X105.998 Y89.125 E.0154
G1 X109.125 Y85.998 E.11522
G1 X109.716 Y85.998 E.0154
G1 X105.998 Y89.716 E.137
G1 X105.998 Y90.307 E.0154
G1 X110.307 Y85.998 E.15878
G1 X110.898 Y85.998 E.0154
G1 X105.998 Y90.898 E.18056
G1 X105.998 Y91.489 E.0154
G1 X111.489 Y85.998 E.20233
G1 X112.08 Y85.998 E.0154
G1 X105.998 Y92.08 E.22411
G1 X105.998 Y92.671 E.0154
G1 X112.671 Y85.998 E.24589
G1 X113.261 Y85.998 E.01537
G1 X105.998 Y93.261 E.26763
G1 X105.998 Y93.852 E.0154
G1 X113.852 Y85.998 E.28941
G1 X114.443 Y85.998 E.0154
G1 X105.998 Y94.443 E.31118
G1 X105.998 Y95.034 E.0154
G1 X115.034 Y85.998 E.33296
G1 X115.625 Y85.998 E.0154
G1 X105.998 Y95.625 E.35474
G1 X105.998 Y96.216 E.0154
G1 X116.216 Y85.998 E.37652
G1 X116.807 Y85.998 E.0154
G1 X105.998 Y96.807 E.39829
G1 X105.998 Y97.398 E.0154
G1 X117.398 Y85.998 E.42007
G1 X117.988 Y85.998 E.01537
G1 X105.998 Y97.988 E.44181
G1 X105.998 Y98.579 E.0154
G1 X118.579 Y85.998 E.46359
G1 X119.17 Y85.998 E.0154
G1 X105.998 Y99.17 E.48537
G1 X105.998 Y99.761 E.0154
G1 X119.761 Y85.998 E.50714
G1 X120.352 Y85.998 E.0154
G1 X105.998 Y100.352 E.52892
G1 X105.998 Y100.943 E.0154
G1 X120.943 Y85.998 E.5507
G1 X121.534 Y85.998 E.0154
G1 X105.998 Y101.534 E.57248
G1 X105.998 Y102.125 E.0154
G1 X122.125 Y85.998 E.59425
G1 X122.715 Y85.998 E.01537
G1 X105.998 Y102.715 E.61599
G1 X105.998 Y103.306 E.0154
G1 X123.306 Y85.998 E.63777
G1 X123.897 Y85.998 E.0154
G1 X105.998 Y103.897 E.65955
G1 X105.998 Y104.488 E.0154
G1 X124.488 Y85.998 E.68133
G1 X125.079 Y85.998 E.0154
G1 X105.998 Y105.079 E.7031
G1 X105.998 Y105.67 E.0154
G1 X125.67 Y85.998 E.72488
G1 X126.261 Y85.998 E.0154
G1 X105.998 Y106.261 E.74666
G1 X105.998 Y106.851 E.01537
G1 X126.852 Y85.998 E.76842
G1 X127.442 Y85.998 E.01537
G1 X105.998 Y107.442 E.79018
G1 X105.998 Y108.033 E.0154
G1 X128.033 Y85.998 E.81195
G1 X128.624 Y85.998 E.0154
G1 X105.998 Y108.624 E.83373
G1 X105.998 Y109.215 E.0154
G1 X129.215 Y85.998 E.85551
G1 X129.806 Y85.998 E.0154
G1 X105.998 Y109.806 E.87729
G1 X105.998 Y110.397 E.0154
M73 P10 R40
G1 X130.397 Y85.998 E.89906
G1 X130.988 Y85.998 E.0154
