%
(Header)
(Generated by gcodetools from Inkscape.)
(Using default header. To add your own header create file "header" in the output dir.)
M5
(Header end.)
G21 (All units in mm)

(Start cutting path id: path365)
(Cone Test)
(Change tool to Default tool)

G00 Z1.000000
G00 X91.864003 Y82.717372

G01 Z-1.000000 F100.0(Penetrate)
G01 X129.643569 Y135.608775 Z-1.000000 F400.000000
G01 X163.048667 Y106.180470 Z-1.000000
G01 X169.809221 Y126.064459 Z-1.000000
G00 Z1.000000

(End cutting path id: path365)


(Start cutting path id: rect365)
(Cone Test)
(Change tool to Default tool)

G00 Z1.000000
G00 X15.907186 Y140.380927

G01 Z-1.000000 F100.0(Penetrate)
G01 X77.149856 Y140.380927 Z-1.000000 F400.000000
G01 X77.149856 Y97.033839 Z-1.000000
G01 X15.907186 Y97.033839 Z-1.000000
G01 X15.907186 Y140.380927 Z-1.000000
G01 X15.907186 Y140.380927 Z-1.000000
G00 Z1.000000

(End cutting path id: rect365)


(Footer)
M5
G00 X0.0000 Y0.0000
M2
(Using default footer. To add your own footer create file "footer" in the output dir.)
(end)
%